X:148
T:AIR XXIX. Corn Rigs are bonny.
O:england
B:Joseph Mitchell: "The Highland Fair" (1731)
M:C|
L:1/4
K:Bb
F|Bd d   (c/B/)|A>BcF|Bd  d>c      |Bf2F   |Bd  d(c/B/)|A>BcA|BGA>G|FB2||
F|Bf d/e/ f    |A>BcF|Bf (d/e/f/e/)|df2d/c/|Bf (d/e/)f |A>BcA|BGA>G|FB2|]


